packages/kaspersky-hexa-ui-icons/src/iconsSVGs/24/IOS3.svg

<svg width="24" height="24" viewBox="0 0 24 24" fill="none" xmlns="http://www.w3.org/2000/svg">
<path d="M16.9308 11.9318C17.0828 12.0543 17.2092 12.2054 17.3102 12.385C17.4108 12.5656 17.4613 12.79 17.4613 13.0583C17.4613 13.3276 17.4213 13.5591 17.3419 13.7531C17.2624 13.9475 17.1513 14.1095 17.008 14.2396C16.8642 14.3687 16.6906 14.4645 16.4872 14.5269C16.2837 14.5894 16.0591 14.6208 15.8152 14.6208C15.4937 14.6208 15.2108 14.5875 14.966 14.5198C14.7221 14.4526 14.5421 14.3859 14.4263 14.3187L14.7092 13.4758C14.7561 13.5053 14.8172 13.5363 14.892 13.5696C14.9674 13.6039 15.0519 13.6344 15.1465 13.6635C15.2406 13.6921 15.3403 13.7159 15.445 13.735C15.5502 13.7545 15.6586 13.7645 15.7697 13.7645C16.0315 13.7645 16.2318 13.715 16.3714 13.6168C16.5106 13.5182 16.5804 13.3681 16.5804 13.1665C16.5804 13.0126 16.5299 12.8882 16.4293 12.792C16.3282 12.6957 16.2019 12.609 16.0499 12.5294C15.8979 12.4498 15.7325 12.3688 15.5548 12.2849C15.3766 12.2006 15.2117 12.0972 15.0597 11.9752C14.9077 11.8527 14.7809 11.7003 14.6798 11.5182C14.5797 11.3357 14.5287 11.1027 14.5287 10.8192C14.5287 10.5743 14.5655 10.3622 14.6385 10.1826C14.7115 10.002 14.8149 9.85233 14.9499 9.73272C15.0854 9.61264 15.2448 9.52353 15.4289 9.46588C15.6136 9.40822 15.8193 9.37915 16.0467 9.37915C16.308 9.37915 16.5542 9.40441 16.7857 9.45539C17.0172 9.50543 17.2082 9.57833 17.358 9.67459L17.0819 10.5028C16.9878 10.4356 16.8459 10.3741 16.6575 10.3188C16.4688 10.2636 16.2653 10.2359 16.0467 10.2359C15.8409 10.2359 15.6834 10.2821 15.5741 10.3727C15.4643 10.4642 15.4097 10.5866 15.4097 10.7406C15.4097 10.8845 15.4606 11.0041 15.5608 11.1003C15.6618 11.1966 15.7886 11.2843 15.9406 11.3662C16.0926 11.4482 16.2575 11.5325 16.4357 11.6188C16.6135 11.705 16.7788 11.8089 16.9308 11.9318Z" fill="black"/>
<path fill-rule="evenodd" clip-rule="evenodd" d="M12.9669 12C12.9669 11.6064 12.9283 11.249 12.8511 10.9269C12.7744 10.6062 12.6568 10.3298 12.4988 10.0996C12.3399 9.86901 12.1415 9.69127 11.9018 9.56642C11.662 9.44157 11.3814 9.37915 11.0608 9.37915C10.449 9.37915 9.97826 9.60645 9.64895 10.0596C9.31964 10.5133 9.15475 11.1604 9.15475 12C9.15475 12.3941 9.19333 12.7514 9.27049 13.0726C9.34766 13.3943 9.4634 13.6702 9.62002 13.9008C9.77617 14.1314 9.97413 14.3092 10.2134 14.434C10.4532 14.5584 10.7356 14.6208 11.0608 14.6208C11.6684 14.6208 12.1383 14.394 12.4694 13.9408C12.8011 13.4872 12.9669 12.8401 12.9669 12ZM11.9886 11.3162C12.0244 11.5273 12.0432 11.7555 12.0432 12C12.0432 12.6142 11.9573 13.0583 11.7865 13.3323C11.6147 13.6058 11.3731 13.7426 11.0608 13.7426C10.8895 13.7426 10.7421 13.6997 10.6176 13.613C10.494 13.5267 10.3921 13.4067 10.3126 13.2527C10.2336 13.0993 10.1748 12.9158 10.1363 12.7019C10.0981 12.4889 10.0784 12.2544 10.0784 12C10.0784 11.4005 10.1643 10.9598 10.336 10.6791C10.5069 10.3984 10.7485 10.2578 11.0608 10.2578C11.2408 10.2578 11.3924 10.3026 11.5164 10.3908C11.6409 10.4794 11.741 10.6033 11.8177 10.762C11.8949 10.9202 11.9518 11.1046 11.9886 11.3162Z" fill="black"/>
<path d="M6.65753 9.51591C6.73699 9.42442 6.84676 9.37915 6.98684 9.37915C7.12692 9.37915 7.23991 9.42442 7.32717 9.51591C7.41352 9.60693 7.45715 9.71748 7.45715 9.84614C7.45715 9.97527 7.41352 10.083 7.32717 10.1697C7.23991 10.2559 7.12692 10.2993 6.98684 10.2993C6.84676 10.2993 6.73699 10.2559 6.65753 10.1697C6.57807 10.083 6.53857 9.97527 6.53857 9.84614C6.53857 9.71748 6.57807 9.60693 6.65753 9.51591Z" fill="black"/>
<path d="M7.46931 14.6208H6.55073V10.762H7.46931V14.6208Z" fill="black"/>
<path fill-rule="evenodd" clip-rule="evenodd" d="M7 3C4.79086 3 3 4.79086 3 7V17C3 19.2091 4.79086 21 7 21H17C19.2091 21 21 19.2091 21 17V7C21 4.79086 19.2091 3 17 3H7ZM5 7C5 5.89543 5.89543 5 7 5H17C18.1046 5 19 5.89543 19 7V17C19 18.1046 18.1046 19 17 19H7C5.89543 19 5 18.1046 5 17V7Z" fill="black"/>
</svg>

<svg xmlns="http://www.w3.org/2000/svg" width="24" height="24" fill="none" viewBox="0 0 24 24"><path fill="#000" d="M16.9308 11.9318q.228.1838.3794.4532.151.2709.1511.6733-.0001.4039-.1194.6948-.1191.2915-.3339.4865-.2157.1937-.5208.2873c-.2035.0625-.4281.0939-.672.0939-.3215 0-.6044-.0333-.8492-.101-.2439-.0672-.4239-.1339-.5397-.2011l.2829-.8429c.0469.0295.108.0605.1828.0938.0754.0343.1599.0648.2545.0939q.1413.0429.2985.0715.158.0294.3247.0295c.2618 0 .4621-.0495.6017-.1477q.2089-.1479.209-.4503c0-.1539-.0505-.2783-.1511-.3745-.1011-.0963-.2274-.183-.3794-.2626a13.5 13.5 0 0 0-.4951-.2445 2.5 2.5 0 0 1-.4951-.3097q-.2281-.1838-.3799-.457c-.1001-.1825-.1511-.4155-.1511-.699q.0001-.3673.1098-.6366c.073-.1806.1764-.3303.3114-.4499q.203-.1802.479-.2668.2769-.0867.6178-.0868.3918-.0001.739.0763.3474.075.5723.2192l-.2761.8282c-.0941-.0672-.236-.1287-.4244-.184q-.283-.0829-.6108-.0829c-.2058 0-.3633.0462-.4726.1368q-.1646.137-.1644.3679c0 .1439.0509.2635.1511.3597.101.0963.2278.184.3798.2659q.2279.123.4951.2526c.1778.0862.3431.1901.4951.313"/><path fill="#000" fill-rule="evenodd" d="M12.9669 12c0-.3936-.0386-.751-.1158-1.0731-.0767-.3207-.1943-.5971-.3523-.8273-.1589-.2306-.3573-.4083-.597-.5332q-.3599-.1873-.841-.1873c-.6118 0-1.0825.2274-1.4119.6805-.3293.4537-.4941 1.1008-.4941 1.9404q0 .591.1157 1.0726c.0772.3217.1929.5976.3495.8282q.2344.346.5934.5332.3597.1867.8474.1868c.6076 0 1.0775-.2268 1.4086-.68q.4975-.6805.4975-1.9408m-.9783-.6838c.0358.2111.0546.4393.0546.6838 0 .6142-.0859 1.0583-.2567 1.3323-.1718.2735-.4134.4103-.7257.4103-.1713 0-.3187-.0429-.4432-.1296q-.1856-.1294-.305-.3603-.1185-.23-.1763-.5508c-.0382-.213-.0579-.4475-.0579-.7019 0-.5995.0859-1.0402.2576-1.3209q.2563-.4212.7248-.4213c.18 0 .3316.0448.4556.133.1245.0886.2246.2125.3013.3712.0772.1582.1341.3426.1709.5542" clip-rule="evenodd"/><path fill="#000" d="M6.658 9.516c.08-.092.189-.137.329-.137s.253.045.34.137c.086.091.13.202.13.33 0 .129-.044.237-.13.324-.087.086-.2.13-.34.13q-.21 0-.329-.13t-.119-.324c0-.129.04-.239.119-.33m.811 5.105H6.55v-3.859h.919z"/><path fill="#000" fill-rule="evenodd" d="M7 3C4.7909 3 3 4.7909 3 7v10c0 2.2091 1.7909 4 4 4h10c2.2091 0 4-1.7909 4-4V7c0-2.2091-1.7909-4-4-4zM5 7c0-1.1046.8954-2 2-2h10c1.1046 0 2 .8954 2 2v10c0 1.1046-.8954 2-2 2H7c-1.1046 0-2-.8954-2-2z" clip-rule="evenodd"/></svg>
